img/icon-for-map.svg

<svg width="58" height="73" viewBox="0 0 58 73" fill="none" xmlns="http://www.w3.org/2000/svg">
<path d="M29 0C18.913 0 0 7.68421 0 29.4561C0 51.2281 29 73 29 73C29 73 58 51.2281 58 29.4561C58 7.68421 39.087 0 29 0Z" fill="#0F5A47"/>
<path d="M11.0956 22.4124C11.0956 20.7475 11.5999 19.2106 12.7347 18.058C13.8695 16.9053 15.2564 16.3931 16.8956 16.3931C18.6608 16.3931 20.0477 16.9053 21.1825 17.9299L20.426 19.2106C20.0477 18.8264 19.5434 18.5703 18.913 18.3141C18.2825 18.058 17.6521 17.9299 17.1477 17.9299C15.8869 17.9299 14.7521 18.3141 13.9956 19.2106C13.239 20.1071 12.8608 21.1317 12.8608 22.4124C12.8608 23.6931 13.239 24.8457 13.9956 25.7422C14.7521 26.6387 15.8869 27.151 17.1477 27.151C17.7782 27.151 18.4086 27.0229 19.039 26.7668C19.6695 26.5106 20.1738 26.1264 20.6782 25.6141L21.5608 26.7668C20.2999 28.0475 18.7869 28.6878 17.1477 28.6878C15.5086 28.6878 13.9956 28.0475 12.8608 26.8948C11.5999 25.6141 11.0956 24.0773 11.0956 22.4124Z" fill="white"/>
<path d="M23.452 28.3035V16.521H25.0911V21.6438H31.1433V16.521H32.7824V28.3035H31.1433V23.1807H25.0911V28.3035H23.452Z" fill="white"/>
<path d="M35.0521 22.2843C35.0521 20.6194 35.5564 19.2106 36.6912 18.058C37.826 16.9053 39.213 16.3931 40.9782 16.3931C42.7434 16.3931 44.1303 16.9053 45.2651 18.058C46.3999 19.2106 46.9043 20.6194 46.9043 22.2843C46.9043 24.0773 46.3999 25.4861 45.2651 26.6387C44.1303 27.7913 42.7434 28.4317 40.9782 28.4317C39.213 28.4317 37.826 27.7913 36.6912 26.6387C35.6825 25.4861 35.0521 24.0773 35.0521 22.2843ZM36.6912 22.2843C36.6912 23.565 37.0695 24.7176 37.9521 25.6141C38.8347 26.5106 39.8434 26.8948 40.9782 26.8948C42.239 26.8948 43.2477 26.5106 44.0043 25.6141C44.7608 24.7176 45.2651 23.565 45.2651 22.2843C45.2651 21.0036 44.8869 19.979 44.0043 19.0825C43.2477 18.186 42.239 17.8018 40.9782 17.8018C39.7173 17.8018 38.7086 18.186 37.9521 19.0825C37.1956 19.979 36.6912 21.0036 36.6912 22.2843Z" fill="white"/>
<path d="M11.5999 37.7805C11.5999 36.1156 12.1042 34.5788 13.239 33.4261C14.3738 32.2735 15.7607 31.7612 17.3999 31.7612C19.1651 31.7612 20.552 32.2735 21.6868 33.2981L20.9303 34.5788C20.552 34.1946 20.0477 33.9384 19.4173 33.6823C18.7868 33.4261 18.1564 33.2981 17.652 33.2981C16.3912 33.2981 15.2564 33.6823 14.4999 34.5788C13.7433 35.4753 13.3651 36.4998 13.3651 37.7805C13.3651 39.0612 13.7433 40.2139 14.4999 41.1104C15.2564 42.0069 16.3912 42.5191 17.652 42.5191C18.2825 42.5191 18.9129 42.3911 19.5433 42.1349C20.1738 41.8788 20.6781 41.4946 21.1825 40.9823L22.0651 42.1349C20.8042 43.4156 19.2912 44.056 17.652 44.056C16.0129 44.056 14.4999 43.4156 13.3651 42.263C12.1042 40.9823 11.5999 39.4454 11.5999 37.7805Z" fill="white"/>
<path d="M23.0738 37.7805C23.0738 36.1156 23.5782 34.5788 24.713 33.4261C25.8477 32.2735 27.2347 31.7612 28.8738 31.7612C30.639 31.7612 32.026 32.2735 33.1608 33.2981L32.2782 34.5788C31.8999 34.1946 31.3956 33.9384 30.7651 33.6823C30.1347 33.4261 29.5043 33.2981 28.9999 33.2981C27.739 33.2981 26.6043 33.6823 25.8477 34.5788C25.0912 35.4753 24.713 36.4998 24.713 37.7805C24.713 39.0612 25.0912 40.2139 25.8477 41.1104C26.6043 42.0069 27.739 42.5191 28.9999 42.5191C29.6303 42.5191 30.2608 42.3911 30.8912 42.1349C31.5217 41.8788 32.026 41.4946 32.5303 40.9823L33.413 42.1349C32.1521 43.4156 30.639 44.056 28.9999 44.056C27.2347 44.056 25.8477 43.4156 24.713 42.263C23.5782 40.9823 23.0738 39.4454 23.0738 37.7805Z" fill="white"/>
<path d="M34.5478 37.6525C34.5478 35.9875 35.0521 34.5788 36.1869 33.4261C37.3217 32.2735 38.7086 31.7612 40.4739 31.7612C42.2391 31.7612 43.626 32.2735 44.7608 33.4261C45.8956 34.5788 46.3999 35.9875 46.3999 37.6525C46.3999 39.4454 45.8956 40.8542 44.7608 42.0068C43.626 43.1595 42.2391 43.7998 40.4739 43.7998C38.7086 43.7998 37.3217 43.1595 36.1869 42.0068C35.0521 40.8542 34.5478 39.4454 34.5478 37.6525ZM36.1869 37.6525C36.1869 38.9332 36.5652 40.0858 37.4478 40.9823C38.3304 41.8788 39.3391 42.263 40.4739 42.263C41.7347 42.263 42.7434 41.8788 43.4999 40.9823C44.2565 40.0858 44.7608 38.9332 44.7608 37.6525C44.7608 36.3718 44.3826 35.3472 43.4999 34.4507C42.7434 33.5542 41.7347 33.17 40.4739 33.17C39.213 33.17 38.2043 33.5542 37.4478 34.4507C36.5652 35.3472 36.1869 36.3718 36.1869 37.6525Z" fill="white"/>
</svg>

<svg width="58" height="73" fill="none" xmlns="http://www.w3.org/2000/svg"><path d="M29 0C18.913 0 0 7.684 0 29.456S29 73 29 73s29-21.772 29-43.544S39.087 0 29 0z" fill="#0F5A47"/><path d="M11.096 22.412c0-1.665.504-3.201 1.639-4.354s2.521-1.665 4.16-1.665c1.766 0 3.153.512 4.288 1.537l-.757 1.28c-.378-.384-.883-.64-1.513-.896-.63-.256-1.26-.384-1.765-.384-1.261 0-2.396.384-3.152 1.28-.757.897-1.135 1.922-1.135 3.202 0 1.281.378 2.434 1.135 3.33.756.897 1.89 1.409 3.152 1.409.63 0 1.26-.128 1.891-.384.63-.256 1.135-.64 1.64-1.153l.882 1.153c-1.261 1.28-2.774 1.92-4.413 1.92-1.64 0-3.152-.64-4.287-1.792-1.261-1.28-1.765-2.818-1.765-4.483zm12.356 5.891V16.521h1.64v5.123h6.051V16.52h1.64v11.782h-1.64V23.18h-6.052v5.122h-1.639zm11.6-6.019c0-1.665.504-3.073 1.64-4.226 1.134-1.153 2.521-1.665 4.286-1.665 1.765 0 3.152.512 4.287 1.665 1.135 1.153 1.64 2.561 1.64 4.226 0 1.793-.505 3.202-1.64 4.355-1.135 1.152-2.522 1.793-4.287 1.793-1.765 0-3.152-.64-4.287-1.793-1.009-1.153-1.639-2.562-1.639-4.355zm1.64 0c0 1.281.377 2.434 1.26 3.33.883.897 1.891 1.28 3.026 1.28 1.261 0 2.27-.383 3.026-1.28.757-.896 1.261-2.049 1.261-3.33 0-1.28-.378-2.305-1.26-3.201-.757-.897-1.766-1.281-3.027-1.281-1.26 0-2.27.384-3.026 1.28-.756.897-1.26 1.922-1.26 3.202zM11.6 37.78c0-1.664.504-3.201 1.639-4.354s2.522-1.665 4.16-1.665c1.766 0 3.153.512 4.288 1.537l-.757 1.28c-.378-.383-.882-.64-1.513-.896-.63-.256-1.26-.384-1.765-.384-1.26 0-2.396.384-3.152 1.28-.757.897-1.135 1.922-1.135 3.203 0 1.28.378 2.433 1.135 3.33.756.896 1.891 1.408 3.152 1.408.63 0 1.26-.128 1.891-.384.63-.256 1.135-.64 1.64-1.153l.882 1.153c-1.26 1.28-2.774 1.921-4.413 1.921-1.64 0-3.152-.64-4.287-1.793-1.26-1.28-1.765-2.818-1.765-4.482zm11.474 0c0-1.664.504-3.201 1.639-4.354s2.522-1.665 4.16-1.665c1.766 0 3.153.512 4.288 1.537l-.883 1.28c-.378-.383-.882-.64-1.513-.896-.63-.256-1.26-.384-1.765-.384-1.261 0-2.396.384-3.152 1.28-.757.897-1.135 1.922-1.135 3.203 0 1.28.378 2.433 1.135 3.33.756.896 1.891 1.408 3.152 1.408.63 0 1.26-.128 1.891-.384.63-.256 1.135-.64 1.64-1.153l.882 1.153c-1.26 1.28-2.774 1.921-4.413 1.921-1.765 0-3.152-.64-4.287-1.793-1.135-1.28-1.64-2.818-1.64-4.482zm11.474-.127c0-1.666.504-3.074 1.639-4.227 1.135-1.153 2.522-1.665 4.287-1.665 1.765 0 3.152.512 4.287 1.665 1.135 1.153 1.639 2.561 1.639 4.227 0 1.792-.504 3.201-1.64 4.354-1.134 1.153-2.52 1.793-4.286 1.793-1.765 0-3.152-.64-4.287-1.793-1.135-1.153-1.64-2.562-1.64-4.354zm1.639 0c0 1.28.378 2.433 1.26 3.33.883.896 1.892 1.28 3.027 1.28 1.26 0 2.27-.384 3.026-1.28.757-.897 1.26-2.05 1.26-3.33 0-1.281-.377-2.306-1.26-3.202-.757-.897-1.765-1.281-3.026-1.281s-2.27.384-3.026 1.28c-.883.897-1.261 1.922-1.261 3.203z" fill="#fff"/></svg>
